X:91
T:B091-  The Cremona fiddle
Q:1/4=120
L:1/4
M:6/4
K:Am
E|A3/2B/2cBA^G|A=GFE2A/2B/2|c3/2d/2eA3/2B/2c|\
G3/2c/2Bc2c/2d/2|edcdBG|c3/2B/2 c/2A/2^GGc|\
AdBcAB|E3/2A/2^GAA|]

